X:530
T:Lilting Banshee, The
R:jig
Z:Transcribed by Dave Marshall
M:6/8
K:Ador
EAA EAA|BAB G2A|Bee edB|dBA GED|
EAA EAA|BAB G2A|Bee edB| dBA A2G |
EAA EAA|BAB G2A|Bee edB|def gfg|
eAA eAA|BAB G2A|Bee edB| dBA ABd
|:e2a age|dBA G2A|B2e edB|def gfg|
e2a age|dBA G2A|B2e edB|1 dBA ABd:|2 dBA A2G |
